src/assets/wed_icon/icon_28/money_default.svg

<svg width="28" height="28" viewBox="0 0 28 28" fill="none" xmlns="http://www.w3.org/2000/svg">
<path fill-rule="evenodd" clip-rule="evenodd" d="M14 23.5C19.2467 23.5 23.5 19.2467 23.5 14C23.5 8.75329 19.2467 4.5 14 4.5C8.75329 4.5 4.5 8.75329 4.5 14C4.5 19.2467 8.75329 23.5 14 23.5ZM14 25C20.0751 25 25 20.0751 25 14C25 7.92487 20.0751 3 14 3C7.92487 3 3 7.92487 3 14C3 20.0751 7.92487 25 14 25Z" fill="#A9AABC"/>
<path fill-rule="evenodd" clip-rule="evenodd" d="M14.0002 12.0923L12.58 17.7731C12.2917 18.9264 10.7079 19.0639 10.2251 17.9776L7.31483 11.4296C7.1466 11.0511 7.31707 10.6078 7.69558 10.4396C8.0741 10.2714 8.51732 10.4419 8.68555 10.8204L11.3009 16.7049L12.7875 10.7584C13.1031 9.49591 14.8973 9.49592 15.2129 10.7584L16.6995 16.7049L19.3148 10.8204C19.4831 10.4419 19.9263 10.2714 20.3048 10.4396C20.6833 10.6078 20.8538 11.0511 20.6855 11.4296L17.7753 17.9776C17.2925 19.0639 15.7087 18.9264 15.4204 17.7731L14.0002 12.0923Z" fill="#A9AABC"/>
<path fill-rule="evenodd" clip-rule="evenodd" d="M6.25 14C6.25 13.5858 6.58579 13.25 7 13.25H21C21.4142 13.25 21.75 13.5858 21.75 14C21.75 14.4142 21.4142 14.75 21 14.75H7C6.58579 14.75 6.25 14.4142 6.25 14Z" fill="#A9AABC"/>
</svg>

<svg xmlns="http://www.w3.org/2000/svg" width="28" height="28" fill="none"><path fill="#A9AABC" fill-rule="evenodd" d="M14 23.5a9.5 9.5 0 1 0 0-19 9.5 9.5 0 0 0 0 19m0 1.5c6.075 0 11-4.925 11-11S20.075 3 14 3 3 7.925 3 14s4.925 11 11 11" clip-rule="evenodd"/><path fill="#A9AABC" fill-rule="evenodd" d="m14 12.092-1.42 5.681c-.288 1.153-1.872 1.29-2.355.205l-2.91-6.548a.75.75 0 1 1 1.37-.61l2.616 5.885 1.486-5.947c.316-1.262 2.11-1.262 2.426 0l1.487 5.947 2.615-5.885a.75.75 0 0 1 1.37.61l-2.91 6.548c-.482 1.086-2.066.948-2.355-.205z" clip-rule="evenodd"/><path fill="#A9AABC" fill-rule="evenodd" d="M6.25 14a.75.75 0 0 1 .75-.75h14a.75.75 0 0 1 0 1.5H7a.75.75 0 0 1-.75-.75" clip-rule="evenodd"/></svg>
